!!!COA:	Josquin des Prez
!!!CDT:	~1450-1521/08/27
!!!OPR:	Missa Veni sancte spiritus
!!!ONM:	4
!!!OTL:	Sanctus
!!!AGN:	Mass; Sanctus
!!!SCT:	NJE 4.6
!!!SCA:	New Josquin Edition 4.6
!!!voices:	6
!!!voices-OPR:	5
**kern	**kern	**kern	**kern	**kern	**kern
*staff6	*staff5	*staff4	*staff3	*staff2	*staff1
*Ivox	*Ivox	*Ivox	*Ivox	*Ivox	*Ivox
*I"Bassus	*I"Vagans	*I"Tenor	*I"Altus	*I"Superius2	*I"Superius1
*I'B	*I'V	*I'T	*I'A	*I'S2	*I'S1
*>[A,B,C,D,E,D]	*>[A,B,C,D,E,D]	*>[A,B,C,D,E,D]	*>[A,B,C,D,E,D]	*>[A,B,C,D,E,D]	*>[A,B,C,D,E,D]
*>A	*>A	*>A	*>A	*>A	*>A
*clefF4	*clefGv2	*clefGv2	*clefGv2	*clefGv2	*clefG2
*k[]	*k[]	*k[]	*k[]	*k[]	*k[]
*M3/1	*M3/1	*M3/1	*M3/1	*M3/1	*M3/1
*met(O|)	*met(O|)	*met(O|)	*met(O|)	*met(O|)	*met(O|)
=1-	=1-	=1-	=1-	=1-	=1-
0.r	0G	0.r	1.G	0.r	0.g
.	.	.	2A/	.	.
.	1G	.	1B	.	.
=2	=2	=2	=2	=2	=2
0.r	1A	0.r	1c	0.r	1e
.	0D	.	1d	.	1.f
.	.	.	2r	.	.
.	.	.	[2f\	.	2d/
=3	=3	=3	=3	=3	=3
0.r	1r	0.r	4f\]	0.r	1d
.	.	.	4e\	.	.
.	.	.	4d\	.	.
.	.	.	4c\	.	.
.	1D	.	2d\	.	1f
.	.	.	2A/	.	.
.	2G/	.	2B\	.	2g/
.	2F/	.	2c\	.	[2a/
=4	=4	=4	=4	=4	=4
0.r	2D/	0.r	2.d\	0.r	4a/]
.	.	.	.	.	4g/
.	2F/	.	.	.	4f/
.	.	.	4c\	.	4e/
.	2G/	.	2B\	.	2d/
.	2C/	.	2c\	.	1g
.	1D	.	1A	.	.
.	.	.	.	.	2f#i/
=5	=5	=5	=5	=5	=5
0GG	1r	[0.G	2G/	0.r	2.g/
.	.	.	1d	.	.
.	.	.	.	.	4a/
.	2r	.	.	.	4b\
.	.	.	.	.	4cc\
.	2D/	.	2B\	.	2dd\
2C/	2C/	.	2c\	.	2ee\
[2GG/	[2D/	.	2B\	.	[2dd\
=6	=6	=6	=6	=6	=6
4GG/]	1D]	0.G]	2G/	0.r	4dd\]
4AA/	.	.	.	.	4cc\
2BB/	.	.	2.g\	.	4b\
.	.	.	.	.	4a/
1C	2E/	.	.	.	2g/
.	.	.	4f\	.	.
.	2C/	.	2e\	.	1cc
1GG	1D	.	1d	.	.
.	.	.	.	.	2b\
=7	=7	=7	=7	=7	=7
1.C	2E/	0.E	2.c\	0.r	0cc
.	1G	.	.	.	.
.	.	.	8B/L	.	.
.	.	.	8A/J	.	.
.	.	.	2G/	.	.
2AA/	2.A/	.	2.c\	.	.
1AA	.	.	.	.	1r
.	4B\	.	4d\	.	.
.	2c\	.	2e\	.	.
=8	=8	=8	=8	=8	=8
0D	2d\	0.F	0.d	0.r	1.a
.	1A	.	.	.	.
.	2B\	.	.	.	2.dd\
2r	2A/	.	.	.	.
.	.	.	.	.	4cc\
2D\	[2d\	.	.	.	2a/
=9	=9	=9	=9	=9	=9
2BB/	4d\]	0.D	2r	0.r	1.b
.	4c\	.	.	.	.
1GG	4B\	.	2.d\	.	.
.	4A/	.	.	.	.
.	2G/	.	.	.	.
.	.	.	4e\	.	.
2.D\	2.F/	.	1f	.	2a/
.	.	.	.	.	2.dd\
4C/	8E/L	.	.	.	.
.	8D/J	.	.	.	.
4BB/	[2G/	.	[2d\	.	.
4AA/	.	.	.	.	4cc\
=10	=10	=10	=10	=10	=10
2GG/	2G/]	0.r	4d\]	0.r	2b\
.	.	.	4e\	.	.
2D\	2F/	.	2f\	.	2a/
2E\	2G/	.	2e\	.	2g/
2F\	2D/	.	4d\	.	2a/
.	.	.	4c\	.	.
2.G\	4G/	.	1B	.	2d/
.	4A/	.	.	.	.
.	4B\	.	.	.	[2dd\
8F\L	4c\	.	.	.	.
8E\J	.	.	.	.	.
=11	=11	=11	=11	=11	=11
2D\	2d\	0.r	2r	0.r	4dd\]
.	.	.	.	.	4cc\
1G	1G	.	2.d\	.	4b\
.	.	.	.	.	4a/
.	.	.	.	.	2b\
.	.	.	4e\	.	.
2F\	2A/	.	2f\	.	1a
1G	1B-i	.	1d	.	.
.	.	.	.	.	2g/
=12	=12	=12	=12	=12	=12
0D	0A	0F	0d	0.r	0a
1D	1d	1A	1f	.	1r
=13	=13	=13	=13	=13	=13
2BB/	2r	0G	1g	0.r	0.dd
2GG/	2.d\	.	.	.	.
2.BB/	.	.	0d	.	.
.	4c\	.	.	.	.
.	2B\	.	.	.	.
4C/	.	.	.	.	.
1D	1A	1F	.	.	.
=14	=14	=14	=14	=14	=14
0.E	2.G/	0.G	2r	0.r	1.b
.	.	.	1g	.	.
.	4A/	.	.	.	.
.	2B\	.	.	.	.
.	2c\	.	2.e\	.	2g/
.	2B\	.	.	.	2.b\
.	.	.	4f\	.	.
.	2e\	.	2g\	.	.
.	.	.	.	.	4cc\
=15	=15	=15	=15	=15	=15
1D	2A/	0.r	2f\	0.r	2.dd\
.	1B	.	1d	.	.
.	.	.	.	.	4cc\
1r	.	.	.	.	2b\
.	2c\	.	1g	.	2g/
1D	1A	.	.	.	1a
.	.	.	2f#i\	.	.
=16	=16	=16	=16	=16	=16
0GG	2G/	0.G	0g	0.r	1b
.	2F/	.	.	.	.
.	2E/	.	.	.	2r
.	2D/	.	.	.	2.dd\
1GG	2r	.	2.d\	.	.
.	.	.	.	.	4cc\
.	[2D/	.	.	.	2b\
.	.	.	4e\	.	.
=17	=17	=17	=17	=17	=17
2D\	2D/]	0.A	2f\	0.r	2a/
2C/	2E/	.	1e	.	2.cc\
1AA	2C/	.	.	.	.
.	.	.	.	.	4b\
.	2E/	.	2c\	.	4a/
.	.	.	.	.	4g/
1D	1D	.	1d	.	4f/
.	.	.	.	.	4e/
.	.	.	.	.	2f/
=18	=18	=18	=18	=18	=18
2E\	1r	0G	0g	0.r	2g/
1C	.	.	.	.	1.e
.	1r	.	.	.	.
4BB/	.	.	.	.	.
4AA/	.	.	.	.	.
1BB	1D	1r	1r	.	1d
=19	=19	=19	=19	=19	=19
0.AA	2E/	0A	0e	0.r	1c
.	2.C/	.	.	.	.
.	.	.	.	.	1r
.	4D/	.	.	.	.
.	4E/	.	.	.	.
.	4F/	.	.	.	.
.	2E/	1A	1e	.	2.cc\
.	[2C/	.	.	.	.
.	.	.	.	.	4b\
=20	=20	=20	=20	=20	=20
1r	4C/]	0c	1e	0.r	2a/
.	4D/	.	.	.	.
.	2E/	.	.	.	2g/
1AA	2F/	.	2r	.	2a/
.	2E/	.	2A/	.	2cc\
1E	1E	1G	2B\	.	2b\
.	.	.	2c\	.	[2g/
=21	=21	=21	=21	=21	=21
1D	0.r	1A	2d\	0.r	2g/]
.	.	.	2f\	.	2f/
0E	.	0G	2e\	.	1g
.	.	.	1d	.	.
.	.	.	.	.	1r
.	.	.	2c#i\	.	.
=22	=22	=22	=22	=22	=22
0D	0A	0F	2d\	0.r	0.a
.	.	.	2.f\	.	.
.	.	.	4e\	.	.
.	.	.	2d\	.	.
1F	2.A/	2r	2c\	.	.
.	.	2F/	2d\	.	.
.	4B\	.	.	.	.
=23	=23	=23	=23	=23	=23
2E\	2c\	2G/	2e\	0.r	2g/
2D\	1d	1A	2f\	.	2f/
1E	.	.	1e	.	1g
.	2c\	2G/	.	.	.
2D\	2d\	1A	2r	.	2f/
[2F\	2A/	.	[2c\	.	[2a/
=24	=24	=24	=24	=24	=24
2F\]	2F/	0c	4c\]	0.r	2a/]
.	.	.	4d\	.	.
2E\	2G/	.	4e\	.	2g/
.	.	.	4f\	.	.
2.C/	2r	.	2g\	.	2e/
.	2.G/	.	2e\	.	2.g/
4D\	.	.	.	.	.
1E	.	1B	1e	.	.
.	4F/	.	.	.	4a/
.	4E/	.	.	.	2b\
.	4D/	.	.	.	.
=25	=25	=25	=25	=25	=25
2.AA/	1C	2A/	2r	0.r	2.cc\
.	.	2.c\	2.e\	.	.
4BB/	.	.	.	.	4b\
2C/	2r	.	.	.	4a/
.	.	4B\	4d\	.	4g/
2E\	2C/	4A/	4c\	.	1g
.	.	4G/	4B\	.	.
1D	2.F/	1A	1d	.	.
.	.	.	.	.	2f#i/
.	4D/	.	.	.	.
=26	=26	=26	=26	=26	=26
0.GGl	0.Dl	0.Gl	0.dl	0.r	0.gl
!!LO:LB:i:g=z
=27||	=27||	=27||	=27||	=27||	=27||
*>B	*>B	*>B	*>B	*>B	*>B
*clefF4	*clefGv2	*clefGv2	*clefGv2	*clefGv2	*clefG2
*k[]	*k[]	*k[]	*k[]	*k[]	*k[]
*M2/1	*M2/1	*M2/1	*M2/1	*M2/1	*M2/1
*met(C|)	*met(C|)	*met(C|)	*met(C|)	*met(C|)	*met(C|)
!!LO:TX:Z=12:t=Pleni sunt coeli ex discantu in subdiatessaron post tempus [canon at the lower fourth]
!!section: Pleni sunt celi
!!!OMD: Pleni sunt celi
0r	2.G/	0r	0r	0r	1.g
.	4F/	.	.	.	.
.	2G/	.	.	.	.
.	2A/	.	.	.	2e/
=28	=28	=28	=28	=28	=28
0r	2.D/	0r	0r	1.d	2.f/
.	4E/	.	.	.	4g/
.	2F/	.	.	.	2a/
.	2G/	.	.	2B\	2d/
=29	=29	=29	=29	=29	=29
0r	1C	0r	0r	2.c\	2e/
.	.	.	.	.	1g
.	.	.	.	4d\	.
.	2r	.	.	2e\	.
.	2D/	.	.	2A/	2f/
=30	=30	=30	=30	=30	=30
0r	2G/	0r	0r	2B\	2d/
.	2F/	.	.	1d	2.f/
.	2D/	.	.	.	.
.	.	.	.	.	4g/
.	[2F/	.	.	2c\	4a/
.	.	.	.	.	4b\
=31	=31	=31	=31	=31	=31
0r	2F/]	0r	0r	2A/	2cc\
.	1F	.	.	2.c\	1a
.	.	.	.	4d\	.
.	4E/	.	.	4e\	4g/
.	4D/	.	.	4f\	4f/
=32	=32	=32	=32	=32	=32
1r	2C/	0r	0r	2g\	1e
.	1c	.	.	1e	.
1C	.	.	.	.	[1g
.	4B\	.	.	4d\	.
.	4A/	.	.	4c\	.
=33	=33	=33	=33	=33	=33
1E	1G	0r	0r	1B	1g]
[1D	1A	.	.	[1d	[1f
=34	=34	=34	=34	=34	=34
1D]	2F/	0r	0r	1d]	1f]
.	1A	.	.	.	.
[1AA	.	.	.	[1c	[1e
.	4G/	.	.	.	.
.	4F/	.	.	.	.
=35	=35	=35	=35	=35	=35
1AA]	1E	0r	0r	1c]	2e/]
.	.	.	.	.	2c/
1D	2D/	.	.	[1B	1d
.	[2d\	.	.	.	.
=36	=36	=36	=36	=36	=36
1E	2d\]	0r	0r	2B\]	1g
.	2c\	.	.	2G/	.
[1D	1d	.	.	1A	[1f
=37	=37	=37	=37	=37	=37
2D\]	1A	0r	0r	1d	2f/]
2E\	.	.	.	.	2g/
1F	1r	.	.	[1c	1a
=38	=38	=38	=38	=38	=38
0C	1.E	0r	0r	2c\]	1g
.	.	.	.	2d\	.
.	.	.	.	1e	1cc
.	2F/	.	.	.	.
=39	=39	=39	=39	=39	=39
0GG	1G	0r	0r	1d	1.b
.	2.D/	.	.	1g	.
.	.	.	.	.	4a/
.	4E/	.	.	.	4g/
=40	=40	=40	=40	=40	=40
0D	4F/	0r	0r	1.f	1a
.	4G/	.	.	.	.
.	1A	.	.	.	.
.	.	.	.	.	1f
.	4G/	.	.	4e\	.
.	4F/	.	.	4d\	.
=41	=41	=41	=41	=41	=41
0C	2.E/	0r	0r	1e	1g
.	4F/	.	.	.	.
.	2G/	.	.	1c	1e
.	2A/	.	.	.	.
=42	=42	=42	=42	=42	=42
1BB	1D	0r	0r	1d	0d
1GG	1G	.	.	1B	.
=43	=43	=43	=43	=43	=43
1AA	1E	0r	0r	0A	1c
1D	1F	.	.	.	1f
=44	=44	=44	=44	=44	=44
2E\	1G	0r	0r	[0Gl	1e
1C	.	.	.	.	.
.	1D	.	.	.	1d
2BB/	.	.	.	.	.
=45	=45	=45	=45	=45	=45
0C	0E	0r	0r	0G_	0c
=46	=46	=46	=46	=46	=46
0GGl	0Dl	0r	0r	0G]	0Bl
!!LO:LB:i:g=z
=47||	=47||	=47||	=47||	=47||	=47||
*>C	*>C	*>C	*>C	*>C	*>C
*clefF4	*clefGv2	*clefGv2	*clefGv2	*clefGv2	*clefG2
*k[]	*k[]	*k[]	*k[]	*k[]	*k[]
*M2/1	*M2/1	*M2/1	*M2/1	*M2/1	*M2/1
*met(C|)	*met(C|)	*met(C|)	*met(C|)	*met(C|)	*met(C|)
!!section: Gloria tua
!!!OMD: Gloria tua
2.GG/	[0G	0r	1.d	0r	0r
4AA/	.	.	.	.	.
2BB/	.	.	.	.	.
[2C/	.	.	[2e\	.	.
=48	=48	=48	=48	=48	=48
2C/]	1G]	0r	4e\]	0r	0r
.	.	.	4d\	.	.
2BB/	.	.	1g	.	.
1AA	1A	.	.	.	.
.	.	.	2f\	.	.
=49	=49	=49	=49	=49	=49
1GG	1B	0r	4g\	0r	[0g
.	.	.	4f\	.	.
.	.	.	4e\	.	.
.	.	.	4d\	.	.
2.C/	[1c	.	1e	.	.
4D\	.	.	.	.	.
=50	=50	=50	=50	=50	=50
4E\	2c\]	0r	2r	0r	1g]
4F\	.	.	.	.	.
1G	2B\	.	2d\	.	.
.	1A	.	2e\	.	1a
2F\	.	.	2f\	.	.
=51	=51	=51	=51	=51	=51
1G	0G	0r	2e\	0r	0b
.	.	.	1d	.	.
1GG	.	.	.	.	.
.	.	.	[2g\	.	.
=52	=52	=52	=52	=52	=52
0AA	0r	0r	2g\]	0r	1.cc
.	.	.	4f#i\	.	.
.	.	.	4e\	.	.
.	.	.	1f#i	.	.
.	.	.	.	.	4b\
.	.	.	.	.	4a/
=53	=53	=53	=53	=53	=53
0GG	1.d	0r	1g	0r	1b
.	.	.	1r	.	[1dd
.	2c\	.	.	.	.
=54	=54	=54	=54	=54	=54
0r	2B\	0r	1.d	0r	2dd\]
.	2A/	.	.	.	2cc\
.	2G/	.	.	.	2b\
.	[2c\	.	[2e\	.	2a/
=55	=55	=55	=55	=55	=55
1r	4c\]	0r	2e\]	0r	2.g/
.	4d\	.	.	.	.
.	2.e\	.	2.c\	.	.
.	.	.	.	.	4f/
1C	.	.	.	.	2g/
.	4d\	.	4d\	.	.
.	4c\	.	2e\	.	[2a/
.	4B\	.	.	.	.
=56	=56	=56	=56	=56	=56
1D	2A/	0r	2d\	0r	2a/]
.	1d	.	2.A/	.	4g/
.	.	.	.	.	4f/
1AA	.	.	.	.	1e
.	.	.	4B\	.	.
.	2c\	.	2c\	.	.
=57	=57	=57	=57	=57	=57
1BB	2B\	0r	2d\	0r	2.d/
.	2G/	.	2B\	.	.
.	.	.	.	.	4e/
1AA	1A	.	2c\	.	4f/
.	.	.	.	.	4g/
.	.	.	2e\	.	[2a/
=58	=58	=58	=58	=58	=58
2D\	2F/	0r	2d\	0r	4a/]
.	.	.	.	.	4g/
2E\	2G/	.	4B\	.	1g
.	.	.	4c\	.	.
1D	1A	.	1d	.	.
.	.	.	.	.	2f#i/
=59	=59	=59	=59	=59	=59
0GGl	0Gl	0r	0dl	0r	0gl
!!LO:LB:i:g=z
=60||	=60||	=60||	=60||	=60||	=60||
*>D	*>D	*>D	*>D	*>D	*>D
*clefF4	*clefGv2	*clefGv2	*clefGv2	*clefGv2	*clefG2
*k[]	*k[]	*k[]	*k[]	*k[]	*k[]
*M3/1	*M3/1	*M3/1	*M3/1	*M3/1	*M3/1
*met(C|/3)	*met(C|/3)	*met(C|/3)	*met(C|/3)	*met(C|/3)	*met(C|/3)
!!section: Osanna
!!!OMD: Osanna
!!LO:TX:Z=12:t=mensuration&colon; Cut C over 3
0.r	1G	0.r	0g	0.r	0.r
.	1B	.	.	.	.
.	1c	.	1e	.	.
=61	=61	=61	=61	=61	=61
1r	0d	0.r	1.f	0.r	0dd
1r	.	.	.	.	.
.	.	.	2e\	.	.
1G	1d	.	1d	.	1b
=62	=62	=62	=62	=62	=62
0A	1A	0.r	1c	0.r	1.cc
.	0c	.	0A	.	.
.	.	.	.	.	2b\
1F	.	.	.	.	1a
=63	=63	=63	=63	=63	=63
0.G	0B	0d	0B	0.r	0g
.	1r	[1B	1d	.	1r
=64	=64	=64	=64	=64	=64
0E	0G	1B]	0e	0.r	0g
.	.	0c	.	.	.
[1F	[1F	.	[1c	.	[1a
=65	=65	=65	=65	=65	=65
1F]	0.F]	0A	1c]	0.r	1a]
0D	.	.	0d	.	0f
.	.	1B	.	.	.
=66	=66	=66	=66	=66	=66
1C	1G	1c	0e	0.r	1e
1AA	1A	1.e	.	.	1c
[1D	1F	.	1A	.	[1f
.	.	2d\	.	.	.
=67	=67	=67	=67	=67	=67
1D]	1D	0d	0A	0.r	1f]
0AA	0E	.	.	.	0e
.	.	1c#i	1r	.	.
=68	=68	=68	=68	=68	=68
0D	1.F	1.d	0A	0.r	0.d
.	2G/	4c\	.	.	.
.	.	4B\	.	.	.
1D	1A	1A	1A	.	.
=69	=69	=69	=69	=69	=69
1BB	1D	1G	1B	0.r	1r
0AA	1E	0A	0c	.	1r
.	1C	.	.	.	1a
=70	=70	=70	=70	=70	=70
0GG	1.G	0.D	1.d	0.r	1.b
.	2E/	.	2e\	.	2cc\
1r	1D	.	1f	.	1dd
=71	=71	=71	=71	=71	=71
0C	0.AA	0E	1e	0.r	1cc
.	.	.	1c	.	1.ee
[1D	.	[1A	[1f	.	.
.	.	.	.	.	2dd\
=72	=72	=72	=72	=72	=72
1D]	1D	0.A]	1f]	0.r	0dd
0AA	1E	.	0e	.	.
.	1C	.	.	.	1cc#i
=73	=73	=73	=73	=73	=73
1.D	1F	0F	0.d	0.r	0dd
.	1A	.	.	.	.
2C/	.	.	.	.	.
2BB/	2G/	1D	.	.	1r
2AA/	2A/	.	.	.	.
=74	=74	=74	=74	=74	=74
0GG	2B\	0.G	0g	0.r	0dd
.	2c\	.	.	.	.
.	0d	.	.	.	.
1GG	.	.	1e	.	1b
=75	=75	=75	=75	=75	=75
1C	1c	0A	0f	0.r	1cc
0D	1F	.	.	.	0a
.	1A	1F	1d	.	.
=76	=76	=76	=76	=76	=76
1BB	1G	0G	1.e	0.r	0b
1GG	1B	.	.	.	.
.	.	.	2c\	.	.
1C	[1c	1E	1c	.	1g
=77	=77	=77	=77	=77	=77
1AA	1c]	0F	0.d	0.r	0a
0D	0A	.	.	.	.
.	.	1D	.	.	1f
=78	=78	=78	=78	=78	=78
1GG	1G	1D	1B	0.r	1g
0AA	1c	0C	1.c	.	0e
.	1e	.	.	.	.
.	.	.	2A/	.	.
=79	=79	=79	=79	=79	=79
0D	0.d	0F	1A	0.r	0f
.	.	.	1.B	.	.
1BB	.	1G	.	.	1d
.	.	.	2G/	.	.
=80	=80	=80	=80	=80	=80
0C	0.c	0E	0G	0.r	1.e
.	.	.	.	.	2c/
1AA	.	1F	1r	.	1c
=81	=81	=81	=81	=81	=81
1BB	1r	1D	1G	0.r	1r
1AA	1r	1E	1A	.	1c
1GG	1B	1r	1B	.	1d
=82	=82	=82	=82	=82	=82
1C	1G	1E	1c	0.r	1e
1F	1A	1D	1d	.	1f
1E	2B\	1G	1e	.	1g
.	2G/	.	.	.	.
=83	=83	=83	=83	=83	=83
1D	0d	2.F/	1f	0.r	1a
.	.	4E/	.	.	.
1GG	.	1D	1g	.	1b
1AA	1r	1C	1e	.	1cc
=84	=84	=84	=84	=84	=84
1.BB	1.B	0G	1.d	0.r	1.dd
2C/	2A/	.	2e\	.	2cc\
1D	1A	1F	1f	.	1a
=85	=85	=85	=85	=85	=85
1BB	1.G	1G	1d	0.r	1b
0AA	.	0A	1c	.	0cc
.	4F#i/	.	.	.	.
.	4E/	.	.	.	.
.	1F#i	.	1A	.	.
=86	=86	=86	=86	=86	=86
0.GGl	0.Gl	0.Dl	0.dl	0.r	0.bl
!!LO:TX:rj:i:t=fine
!!LO:LB:i:g=z
=87||	=87||	=87||	=87||	=87||	=87||
*>E	*>E	*>E	*>E	*>E	*>E
*clefF4	*clefGv2	*clefGv2	*clefGv2	*clefGv2	*clefG2
*k[]	*k[]	*k[]	*k[]	*k[]	*k[]
*M2/1	*M2/1	*M2/1	*M2/1	*M2/1	*M2/1
*met(C|)	*met(C|)	*met(C|)	*met(C|)	*met(C|)	*met(C|)
!!section: Benedictus
!!!OMD: Benedictus
0r	0G	0r	1d	0r	0g
.	.	.	2d\	.	.
.	.	.	[2e\	.	.
=88	=88	=88	=88	=88	=88
0r	1G	0r	4e\]	0r	1g
.	.	.	4d\	.	.
.	.	.	4c\	.	.
.	.	.	4B\	.	.
.	1F	.	2A/	.	[1a
.	.	.	2d\	.	.
=89	=89	=89	=89	=89	=89
0r	0E	0r	2e\	0r	2a/]
.	.	.	2.d\	.	4g/
.	.	.	.	.	4f/
.	.	.	.	.	1g
.	.	.	4c#i\	.	.
.	.	.	4c#i\	.	.
.	.	.	4B\	.	.
=90	=90	=90	=90	=90	=90
0D	0D	0r	0d	0r	0f
=91	=91	=91	=91	=91	=91
2.BB/	0G	0r	2r	0r	[0g
.	.	.	2.d\	.	.
4C/	.	.	.	.	.
2BB/	.	.	.	.	.
.	.	.	4c\	.	.
[2E\	.	.	4B\	.	.
.	.	.	4A/	.	.
=92	=92	=92	=92	=92	=92
2E\]	0r	0r	4G/	0r	0g]
.	.	.	4A/	.	.
4D\	.	.	4B\	.	.
4C/	.	.	4c\	.	.
2BB/	.	.	2d\	.	.
2GG/	.	.	[2g\	.	.
=93	=93	=93	=93	=93	=93
0D	0r	0r	2g\]	0r	0a
.	.	.	4f\	.	.
.	.	.	4e\	.	.
.	.	.	4f\	.	.
.	.	.	4e\	.	.
.	.	.	4d\	.	.
.	.	.	4c\	.	.
=94	=94	=94	=94	=94	=94
2r	2.G/	0r	1B	0r	0g
1E	.	.	.	.	.
.	4A/	.	.	.	.
.	2B\	.	2r	.	.
2C/	2c\	.	2e\	.	.
=95	=95	=95	=95	=95	=95
2D\	2A/	0r	2f\	0r	0r
2C/	2.c\	.	2e\	.	.
[1F	.	.	1c	.	.
.	4B\	.	.	.	.
.	4A/	.	.	.	.
.	4G/	.	.	.	.
=96	=96	=96	=96	=96	=96
2F\]	2A/	0r	2r	0r	0r
2E\	1c	.	2e\	.	.
1D	.	.	2.f\	.	.
.	2B\	.	.	.	.
.	.	.	8e\L	.	.
.	.	.	8d\J	.	.
=97	=97	=97	=97	=97	=97
1C	2c\	0r	2e\	0r	2.cc\
.	2G/	.	2g\	.	.
.	.	.	.	.	4b\
2r	2c\	.	2a\	.	2cc\
2G\	2B\	.	[2g\	.	[2dd\
=98	=98	=98	=98	=98	=98
1A	1c	0r	2g\]	0r	4dd\]
.	.	.	.	.	4cc\
.	.	.	2f\	.	1cc
1G	1d	.	1g	.	.
.	.	.	.	.	2b\
=99	=99	=99	=99	=99	=99
1r	1c	0r	0e	0r	0cc
1C	1r	.	.	.	.
=100	=100	=100	=100	=100	=100
1.F	0A	0r	1f	0r	1r
.	.	.	1f	.	1cc
2F\	.	.	.	.	.
=101	=101	=101	=101	=101	=101
[0C	1G	0r	[0e	0r	1.cc
.	1G	.	.	.	.
.	.	.	.	.	2cc\
=102	=102	=102	=102	=102	=102
0C]	1c	0r	0e]	0r	0g
.	2r	.	.	.	.
.	[2c\	.	.	.	.
=103	=103	=103	=103	=103	=103
2r	4c\]	0r	1c	0r	1.a
.	4B\	.	.	.	.
2.F\	4A/	.	.	.	.
.	4G/	.	.	.	.
.	1F	.	1d	.	.
4E\	.	.	.	.	.
2D\	.	.	.	.	2b\
=104	=104	=104	=104	=104	=104
2C/	2E/	0r	1e	0r	1cc
2AA/	1A	.	.	.	.
1BB	.	.	1d	.	1dd
.	2G#i/	.	.	.	.
=105	=105	=105	=105	=105	=105
2AA/	2A/	0r	1r	0r	1cc
2A\	2c\	.	.	.	.
2G\	2B\	.	2r	.	2dd\
[2E\	2G/	.	[2c\	.	[2ee\
=106	=106	=106	=106	=106	=106
4E\]	1G	0r	2c\]	0r	2ee\]
4F\	.	.	.	.	.
2G\	.	.	2B\	.	2dd\
2A\	1r	.	2c\	.	2cc\
[2G\	.	.	2B\	.	[2dd\
=107	=107	=107	=107	=107	=107
4G\]	2r	0r	2G/	0r	2dd\]
4F\	.	.	.	.	.
4E\	1.G	.	2.c\	.	2.ee\
4D\	.	.	.	.	.
1C	.	.	.	.	.
.	.	.	4d\	.	4dd\
.	.	.	2e\	.	4cc\
.	.	.	.	.	4b\
=108	=108	=108	=108	=108	=108
2D\	2F/	0r	2f\	0r	2a/
2AA/	1A	.	2.e\	.	1cc
1E	.	.	.	.	.
.	.	.	4f\	.	.
.	2G/	.	2g\	.	2b\
=109	=109	=109	=109	=109	=109
2AA/	2A/	0r	2.c\	0r	2a/
2E\	1c	.	.	.	2g/
.	.	.	4B\	.	.
2F\	.	.	2A/	.	2a/
2G\	2B\	.	2G/	.	[2b\
=110	=110	=110	=110	=110	=110
1E	1G	0r	2B\	0r	4b\]
.	.	.	.	.	4a/
.	.	.	2c\	.	1g
1D	1A	.	1d	.	.
.	.	.	.	.	2f#i/
=111	=111	=111	=111	=111	=111
0GGl	0Gl	0r	0dl	0r	0gl
!!LO:TX:i:Y=40:rj:t=Osanna ut supra
=||	=||	=||	=||	=||	=||
*-	*-	*-	*-	*-	*-
!!!RDF**kern: l=long note in original notation
!!!RDF**kern: i=editorial accidental
!!!RDF**kern: V=start of tuplet marker
!!!RDF**kern: Z=end of tuplet marker
!!!ENC:	Victoria Chang 2011/05/04
!!!END:	2011/05/04/
!!!EED:	Jesse Rodin
!!!EEV:	2012/06/27/
!!attribution-level@Jos: 4 (questionable)
!!!ONB:	Translated from MusicXML and edited on 2012/06/27/ by Craig Sapp
!!muse2ps: T^@{OPR}^u^@{ONM}{. }@{OTL}^C^@{COA}?\n@{SCT}^i2I150v95,95,95,95,95,130Q16
